X:226
T:New Anything
R: hp 32
M:C|
L:1/8
R:Country Dance
B:Playford DM 1710
K:D
FG|A2d2A2d2|A3G F2d2|ABAG FdcB|AGFE D2 FG|
A2d2A2d2|A3G F2d2|AdcB AGFE|D4-D2:|
|:cd|e2c2A2 cd|efed c2A2|a2f2d2fg|abag f2 ed|
cdef gBcd|efed c2A2|afdf e2c2|d4-d2:|]

